symbolic/24x24/apps/tiktok.svg

<svg xmlns="http://www.w3.org/2000/svg" width="24" height="24" version="1.1">
 <circle style="opacity:0.2" cx="12" cy="12.5" r="10"/>
 <circle style="fill:#3f3f3f" cx="12" cy="12" r="10"/>
 <path style="opacity:0.2" d="M 13 5.5 L 13 8 L 13 13 L 13 14.5 C 13 15.604569 12.10457 16.5 11 16.5 C 9.8954305 16.5 9 15.604569 9 14.5 C 9 13.395431 9.8954305 12.5 11 12.5 L 11 10.5 C 8.790861 10.5 7 12.290861 7 14.5 C 7 16.709139 8.790861 18.5 11 18.5 C 13.209139 18.5 15 16.709139 15 14.5 L 15 9.9042969 C 15.858487 10.492594 16.880629 11 18 11 L 18 9.0859375 L 18 8.6152344 C 17.41779 8.6155844 16.86285 8.4511546 16.369141 8.1425781 L 16.369141 8.1445312 C 15.697276 7.7254448 15.200133 7.0552216 15 6.2675781 L 14.849609 5.5 L 13 5.5 z"/>
 <path style="fill:#ffffff" d="M 13 5 L 13 8 L 13 13 L 13 14 C 13 15.10457 12.10457 16 11 16 C 9.8954305 16 9 15.10457 9 14 C 9 12.895431 9.8954305 12 11 12 L 11 10 C 8.790861 10 7 11.790861 7 14 C 7 16.209139 8.790861 18 11 18 C 13.209139 18 15 16.209139 15 14 L 15 9.4042969 C 15.858487 9.9925939 16.880629 10.5 18 10.5 L 18 8.5859375 L 18 8.1152344 C 17.41779 8.1155844 16.86285 7.9511546 16.369141 7.6425781 L 16.369141 7.6445312 C 15.697276 7.2254448 15.200133 6.5552216 15 5.7675781 L 14.849609 5 L 13 5 z"/>
 <path style="opacity:0.1;fill:#ffffff" d="M 12,2 A 10,10 0 0 0 2,12 10,10 0 0 0 2.0107422,12.291016 10,10 0 0 1 12,2.5 10,10 0 0 1 21.989258,12.208985 10,10 0 0 0 22,12 10,10 0 0 0 12,2 Z"/>
</svg>

<svg xmlns="http://www.w3.org/2000/svg" width="24" height="24"><circle style="opacity:.2" cx="12" cy="12.5" r="10"/><circle style="fill:#3f3f3f" cx="12" cy="12" r="10"/><path style="opacity:.2" d="M13 5.5v9a2 2 0 1 1-2-2v-2a4 4 0 1 0 4 4V9.904c.858.589 1.88 1.096 3 1.096V8.616a3.05 3.05 0 0 1-1.63-.473v.002A3.12 3.12 0 0 1 15 6.268l-.15-.768H13z"/><path style="fill:#fff" d="M13 5v9a2 2 0 1 1-2-2v-2a4 4 0 1 0 4 4V9.404c.858.589 1.88 1.096 3 1.096V8.116a3.05 3.05 0 0 1-1.63-.473v.002A3.12 3.12 0 0 1 15 5.768L14.85 5H13z"/><path style="opacity:.1;fill:#fff" d="M12 2A10 10 0 0 0 2 12a10 10 0 0 0 .01.291A10 10 0 0 1 12 2.5a10 10 0 0 1 9.99 9.709A10 10 0 0 0 22 12 10 10 0 0 0 12 2z"/></svg>
